static/img/logo.svg

<?xml version="1.0" encoding="UTF-8" standalone="no"?>
<svg
   xmlns:dc="http://purl.org/dc/elements/1.1/"
   xmlns:cc="http://creativecommons.org/ns#"
   xmlns:rdf="http://www.w3.org/1999/02/22-rdf-syntax-ns#"
   xmlns:svg="http://www.w3.org/2000/svg"
   xmlns="http://www.w3.org/2000/svg"
   xmlns:sodipodi="http://sodipodi.sourceforge.net/DTD/sodipodi-0.dtd"
   xmlns:inkscape="http://www.inkscape.org/namespaces/inkscape"
   inkscape:version="1.0rc1 (09960d6, 2020-04-09)"
   sodipodi:docname="corro.svg"
   xml:space="preserve"
   enable-background="new 0 0 2148.918 806.663"
   viewBox="0 0 1055.3783 862.30857"
   height="862.30859"
   width="1055.3783"
   y="0px"
   x="0px"
   id="Layer_1"
   version="1.1"><metadata
   id="metadata1018"><rdf:RDF><cc:Work
       rdf:about=""><dc:format>image/svg+xml</dc:format><dc:type
         rdf:resource="http://purl.org/dc/dcmitype/StillImage" /><dc:title></dc:title></cc:Work></rdf:RDF></metadata><defs
   id="defs1016" /><sodipodi:namedview
   fit-margin-right="50"
   fit-margin-left="50"
   fit-margin-bottom="50"
   fit-margin-top="50"
   inkscape:current-layer="g1011"
   inkscape:window-maximized="0"
   inkscape:window-y="23"
   inkscape:window-x="68"
   inkscape:cy="395.69544"
   inkscape:cx="781.80833"
   inkscape:zoom="0.33132954"
   showgrid="false"
   id="namedview1014"
   inkscape:window-height="957"
   inkscape:window-width="1536"
   inkscape:pageshadow="2"
   inkscape:pageopacity="0"
   guidetolerance="10"
   gridtolerance="10"
   objecttolerance="10"
   borderopacity="1"
   bordercolor="#666666"
   pagecolor="#ffffff" />
<g
   transform="translate(-17.999618,15)"
   id="g1011">
	<g
   id="g841">
		<path
   inkscape:connector-curvature="0"
   id="path833"
   d="m 146.014,554.568 c 1.591,3.545 5.165,6.132 9.438,6.83 l 42.059,6.831 c 1.581,2.84 3.243,5.638 4.911,8.414 l -18.34,33.827 c -1.888,3.447 -1.577,7.5 0.781,10.702 2.349,3.221 6.4,5.152 10.76,5.091 l 42.82,-0.495 c 2.171,2.474 4.378,4.926 6.632,7.333 l -10.506,36.433 c -1.063,3.699 0.122,7.617 3.146,10.377 3.008,2.749 7.431,3.947 11.671,3.155 l 41.844,-7.838 c 2.662,2.061 5.372,4.098 8.109,6.094 l -2.189,37.566 c -0.23,3.802 1.81,7.46 5.388,9.639 3.576,2.194 8.159,2.604 12.14,1.1 l 39.174,-14.833 c 3.104,1.573 6.225,3.132 9.381,4.642 l 6.194,37.179 c 0.626,3.767 3.436,7.009 7.425,8.542 3.976,1.538 8.571,1.153 12.125,-1.009 l 35.074,-21.251 c 3.396,1.021 6.807,2.001 10.265,2.942 l 14.3,35.416 c 1.455,3.609 4.91,6.306 9.169,7.127 4.244,0.814 8.649,-0.345 11.652,-3.066 l 29.687,-26.946 c 3.522,0.409 7.048,0.789 10.584,1.114 l 21.947,32.409 c 2.226,3.281 6.218,5.33 10.565,5.413 4.334,0.083 8.41,-1.812 10.733,-5.008 l 23.126,-31.552 c 3.547,-0.188 7.099,-0.435 10.628,-0.709 l 28.682,28.058 c 2.905,2.835 7.279,4.161 11.538,3.509 4.282,-0.666 7.842,-3.222 9.418,-6.773 l 15.601,-34.846 c 3.479,-0.81 6.926,-1.668 10.365,-2.55 l 34.257,22.572 c 3.483,2.302 8.062,2.861 12.1,1.468 4.025,-1.379 6.964,-4.513 7.725,-8.252 l 7.556,-36.917 c 3.208,-1.389 6.385,-2.818 9.552,-4.281 l 38.6,16.313 c 3.92,1.661 8.535,1.422 12.17,-0.636 3.65,-2.042 5.828,-5.619 5.732,-9.426 l -0.802,-37.625 c 2.803,-1.892 5.578,-3.823 8.327,-5.78 l 41.521,9.426 c 4.218,0.946 8.677,-0.075 11.79,-2.709 3.135,-2.644 4.454,-6.513 3.53,-10.249 l -9.146,-36.808 c 2.32,-2.329 4.618,-4.687 6.875,-7.074 l 42.77,2.125 c 4.316,0.19 8.473,-1.549 10.943,-4.679 2.478,-3.11 2.918,-7.147 1.181,-10.665 l -17.104,-34.501 c 1.774,-2.712 3.535,-5.445 5.231,-8.222 l 42.278,-5.226 c 4.297,-0.526 7.954,-2.975 9.684,-6.465 1.72,-3.5 1.257,-7.533 -1.215,-10.677 L 921.479,528.24 c 0.203,-0.531 -1.999,-32.28 -21.526,-58.158 0,0 -0.169,-0.069 -0.475,-0.191 C 855.033,407.22 716.712,359.6 552.124,356.465 378.036,353.149 231.49,400.686 193.714,467.318 176.853,484.381 172.602,512.466 173.11,513.99 l -25.495,29.958 c -2.602,3.046 -3.19,7.059 -1.601,10.62 z"
   fill="#8f1f1d" />
		<path
   inkscape:connector-curvature="0"
   id="path835"
   d="m 1006.008,420.45 c -1.728,-4.947 -19.723,-3.687 -24.194,-4.556 l -65.68,0.586 c -1.701,-3.954 -3.489,-7.85 -5.283,-11.713 l 42.551,-65.735 c 1.905,-4.904 12.443,-11.779 9.923,-16.227 -2.512,-4.469 -18.607,1.506 -23.153,1.708 l -67.827,12.061 c -2.313,-3.422 -4.662,-6.814 -7.059,-10.144 l 38.03,-84.758 c 1.039,-5.237 12.658,-26.514 9.45,-30.318 -3.189,-3.792 -18.273,9.018 -22.681,10.249 l -73.744,46.76 c -2.816,-2.829 -5.681,-5.624 -8.575,-8.362 l 20.894,-73.414 c 0.168,-5.358 11.334,-30.76 7.561,-33.733 -3.771,-2.993 -16.667,8.452 -20.79,10.675 l -65.16,50.814 c -3.268,-2.13 -6.552,-4.242 -9.872,-6.284 l 15.496,-86.805 c -0.726,-5.287 5.608,-32.964 1.417,-35.016 -4.174,-2.061 -26.104,22.056 -29.768,25.194 l -51.029,65.23 c -3.562,-1.346 -7.138,-2.635 -10.763,-3.867 L 660.92,74.281 c -1.585,-5.042 -1.212,-22.872 -5.67,-23.913 -4.442,-1.033 -10.15,14.875 -13.23,18.788 l -44.103,87.736 c -3.682,-0.482 -7.366,-0.922 -11.061,-1.283 L 564.527,54.643 C 562.143,50.081 559.614,35 555.078,35 c -4.522,0 -8.035,18.07 -10.396,22.631 l -27.077,97.982 c -3.695,0.361 -7.396,0.801 -11.07,1.283 L 468.137,67.88 c -3.084,-3.914 -8.33,-23.237 -12.758,-22.205 -4.455,1.053 -3.621,15.455 -5.197,20.497 l -11.499,106.627 c -3.614,1.232 -7.193,2.532 -10.764,3.867 l -34.912,-44.734 c -3.677,-3.148 -24.165,-34.096 -28.351,-32.026 -4.172,2.051 -1.167,34.426 -1.89,39.712 l 1.271,68.443 c -3.32,2.042 -6.606,4.14 -9.883,6.284 l -63.681,-59.354 c -4.12,-2.232 -12.786,-11.533 -16.538,-8.541 -3.769,2.974 -0.643,16.419 -0.472,21.778 l 23.196,91.775 c -2.887,2.738 -5.745,5.533 -8.575,8.362 l -69.905,-43.344 c -4.418,-1.22 -18.065,-11.905 -21.263,-8.113 -3.218,3.804 4.164,7.809 5.197,13.047 l 36.995,96.478 c -2.376,3.342 -4.729,6.721 -7.034,10.144 L 118.07,298.04 c -4.506,-0.151 -16.917,-6.178 -19.435,-1.708 -2.522,4.447 8.045,10.896 9.923,15.8 l 85.012,92.637 c -1.798,3.863 -3.583,7.759 -5.3,11.713 l -82.547,-9.979 c -4.47,0.857 -16.217,-1.544 -17.956,3.415 -1.728,4.972 9.648,11.415 12.286,15.774 l 61.741,66.493 c -0.201,0.755 2.702,45.391 23.563,81.296 0,0 0.177,0.092 0.499,0.258 47.554,87.035 192.733,150.364 364.46,150.364 181.639,0 333.578,-70.85 371.705,-165.663 17.261,-24.474 21.158,-64.123 20.598,-66.255 l 50.158,-54.084 c 2.656,-4.362 14.956,-12.68 13.231,-17.651 z"
   fill="#8f1f1d" />
		<path
   inkscape:connector-curvature="0"
   id="path837"
   d="m 195.34,493.008 c 0,0 -94.761,13.599 -116.083,18.311 -21.321,4.711 -7.095,8.297 0,9.421 24.757,3.927 146.88,7.067 149.25,7.853 2.369,0.785 -33.167,-35.585 -33.167,-35.585 z"
   fill="#8f1f1d" />
		<path
   inkscape:connector-curvature="0"
   id="path839"
   d="m 896.038,499.622 c 0,0 94.762,13.6 116.083,18.311 21.32,4.712 7.095,8.298 0,9.422 -24.758,3.927 -146.88,7.067 -149.249,7.853 -2.37,0.784 33.166,-35.586 33.166,-35.586 z"
   fill="#8f1f1d" />
	</g>
	<g
   transform="translate(-48,14)"
   id="g847">
		<path
   inkscape:connector-curvature="0"
   id="path843"
   d="m 467.982,486.018 c 0,0 -41.096,-44.997 -82.191,0 0,0 -32.292,60.001 0,89.998 0,0 52.837,41.999 82.191,0 0,0 35.226,-33.002 0,-89.998 z" />
		<path
   inkscape:connector-curvature="0"
   id="path845"
   d="m 420.404,502.71 c 0,17.521 10.329,31.727 23.066,31.727 12.735,0 23.064,-14.205 23.064,-31.727 0,-17.522 -10.329,-31.728 -23.064,-31.728 -12.738,0 -23.066,14.206 -23.066,31.728 z"
   fill="#ffffff" />
	</g>
	<g
   transform="translate(-48,14)"
   id="g853">
		<path
   inkscape:connector-curvature="0"
   id="path849"
   d="m 698.226,469.498 c 0,0 -70.494,-31.212 -89.735,38.454 0,0 -20.153,81.201 57.891,85.784 -10e-4,0 99.518,-19.168 31.844,-124.238 z" />
		<path
   inkscape:connector-curvature="0"
   id="path851"
   d="m 662.819,499.628 c 0,18.068 10.65,32.723 23.79,32.723 13.133,0 23.786,-14.654 23.786,-32.723 0,-18.072 -10.653,-32.723 -23.786,-32.723 -13.139,0 -23.79,14.651 -23.79,32.723 z"
   fill="#ffffff" />
	</g>
	
	
	
	
	
	
	
	
	
	
	
</g>
</svg>

<?xml version="1.0" encoding="UTF-8"?>
<svg width="1056px" height="863px" viewBox="0 0 1056 863" version="1.1" xmlns="http://www.w3.org/2000/svg" xmlns:xlink="http://www.w3.org/1999/xlink">
    <title>logo</title>
    <g id="logo" stroke="none" fill="none" fill-rule="evenodd" stroke-width="1">
        <g id="Layer_1">
            <g id="g841" transform="translate(-17.9996, 15)" fill="#8F1F1D" fill-rule="nonzero">
                <path d="M146.014,554.568 C147.605,558.113 151.179,560.7 155.452,561.398 L197.511,568.229 C199.092,571.069 200.754,573.867 202.422,576.643 L184.082,610.47 C182.194,613.917 182.505,617.97 184.863,621.172 C187.212,624.393 191.263,626.324 195.623,626.263 L238.443,625.768 C240.614,628.242 242.821,630.694 245.075,633.101 L234.569,669.534 C233.506,673.233 234.691,677.151 237.715,679.911 C240.723,682.66 245.146,683.858 249.386,683.066 L291.23,675.228 C293.892,677.289 296.602,679.326 299.339,681.322 L297.15,718.888 C296.92,722.69 298.96,726.348 302.538,728.527 C306.114,730.721 310.697,731.131 314.678,729.627 L353.852,714.794 C356.956,716.367 360.077,717.926 363.233,719.436 L369.427,756.615 C370.053,760.382 372.863,763.624 376.852,765.157 C380.828,766.695 385.423,766.31 388.977,764.148 L424.051,742.897 C427.447,743.918 430.858,744.898 434.316,745.839 L448.616,781.255 C450.071,784.864 453.526,787.561 457.785,788.382 C462.029,789.196 466.434,788.037 469.437,785.316 L499.124,758.37 C502.646,758.779 506.172,759.159 509.708,759.484 L531.655,791.893 C533.881,795.174 537.873,797.223 542.22,797.308618 C546.554,797.389 550.63,795.494 552.953,792.298 L576.079,760.746 C579.626,760.558 583.178,760.311 586.707,760.037 L615.389,788.095 C618.294,790.93 622.668,792.256 626.927,791.604 C631.209,790.938 634.769,788.382 636.345,784.831 L651.946,749.985 C655.425,749.175 658.872,748.317 662.311,747.435 L696.568,770.007 C700.051,772.309 704.63,772.868 708.668,771.475 C712.693,770.096 715.632,766.962 716.393,763.223 L723.949,726.306 C727.157,724.917 730.334,723.488 733.501,722.025 L772.101,738.338 C776.021,739.999 780.636,739.76 784.271,737.702 C787.921,735.66 790.099,732.083 790.003,728.276 L789.201,690.651 C792.004,688.759 794.779,686.828 797.528,684.871 L839.049,694.297 C843.267,695.243 847.726,694.222 850.839,691.588 C853.974,688.944 855.293,685.075 854.369,681.339 L845.223,644.531 C847.543,642.202 849.841,639.844 852.098,637.457 L894.868,639.582 C899.184,639.772 903.341,638.033 905.811,634.903 C908.289,631.793 908.729,627.756 906.992,624.238 L889.888,589.737 C891.662,587.025 893.423,584.292 895.119,581.515 L937.397,576.289 C941.694,575.763 945.351,573.314 947.081,569.824 C948.801,566.324 948.338,562.291 945.866,559.147 L921.479,528.24 C921.682,527.709 919.48,495.96 899.953,470.082 C899.953,470.082 899.784,470.013 899.478,469.891 C855.033,407.22 716.712,359.6 552.124,356.465 C378.036,353.149 231.49,400.686 193.714,467.318 C176.853,484.381 172.602,512.466 173.11,513.99 L147.615,543.948 C145.013,546.994 144.425,551.007 146.014,554.568 Z" id="path833"></path>
                <path d="M1006.008,420.45 C1004.28,415.503 986.285,416.763 981.814,415.894 L916.134,416.48 C914.433,412.526 912.645,408.63 910.851,404.767 L953.402,339.032 C955.307,334.128 965.845,327.253 963.325,322.805 C960.813,318.336 944.718,324.311 940.172,324.513 L872.345,336.574 C870.032,333.152 867.683,329.76 865.286,326.43 L903.316,241.672 C904.355,236.435 915.974,215.158 912.766,211.354 C909.577,207.562 894.493,220.372 890.085,221.603 L816.341,268.363 C813.525,265.534 810.66,262.739 807.766,260.001 L828.66,186.587 C828.828,181.229 839.994,155.827 836.221,152.854 C832.45,149.861 819.554,161.306 815.431,163.529 L750.271,214.343 C747.003,212.213 743.719,210.101 740.399,208.059 L755.895,121.254 C755.169,115.967 761.503,88.29 757.312,86.238 C753.138,84.177 731.208,108.294 727.544,111.432 L676.515,176.662 C672.953,175.316 669.377,174.027 665.752,172.795 L660.92,74.281 C659.335,69.239 659.708,51.409 655.25,50.368 C650.808,49.335 645.1,65.243 642.02,69.156 L597.917,156.892 C594.235,156.41 590.551,155.97 586.856,155.609 L564.527,54.643 C562.143,50.081 559.614,35 555.078,35 C550.556,35 547.043,53.07 544.682,57.631 L517.605,155.613 C513.91,155.974 510.209,156.414 506.535,156.896 L468.137,67.88 C465.053,63.966 459.807,44.643 455.379,45.675 C450.924,46.728 451.758,61.13 450.182,66.172 L438.683,172.799 C435.069,174.031 431.49,175.331 427.919,176.666 L393.007,131.932 C389.33,128.784 368.842,97.836 364.656,99.906 C360.484,101.957 363.489,134.332 362.766,139.618 L364.037,208.061 C360.717,210.103 357.431,212.201 354.154,214.345 L290.473,154.991 C286.353,152.759 277.687,143.458 273.935,146.45 C270.166,149.424 273.292,162.869 273.463,168.228 L296.659,260.003 C293.772,262.741 290.914,265.536 288.084,268.365 L218.179,225.021 C213.761,223.801 200.114,213.116 196.916,216.908 C193.698,220.712 201.08,224.717 202.113,229.955 L239.108,326.433 C236.732,329.775 234.379,333.154 232.074,336.577 L118.07,298.04 C113.564,297.889 101.153,291.862 98.635,296.332 C96.113,300.779 106.68,307.228 108.558,312.132 L193.57,404.769 C191.772,408.632 189.987,412.528 188.27,416.482 L105.723,406.503 C101.253,407.36 89.506,404.959 87.767,409.918 C86.039,414.89 97.415,421.333 100.053,425.692 L161.794,492.185 C161.593,492.94 164.496,537.576 185.357,573.481 C185.357,573.481 185.534,573.573 185.856,573.739 C233.41,660.774 378.589,724.103 550.316,724.103 C731.955,724.103 883.894,653.253 922.021,558.44 C939.282,533.966 943.179,494.317 942.619,492.185 L992.777,438.101 C995.433,433.739 1007.733,425.421 1006.008,420.45 L1006.008,420.45 Z" id="path835"></path>
                <path d="M195.34,493.008 C195.34,493.008 100.579,506.607 79.257,511.319 C57.936,516.03 72.162,519.616 79.257,520.74 C104.014,524.667 226.137,527.807 228.507,528.593 C230.876,529.378 195.34,493.008 195.34,493.008 Z" id="path837"></path>
                <path d="M896.038,499.622 C896.038,499.622 990.8,513.222 1012.121,517.933 C1033.441,522.645 1019.216,526.231 1012.121,527.355 C987.363,531.282 865.241,534.422 862.872,535.208 C860.502,535.992 896.038,499.622 896.038,499.622 L896.038,499.622 Z" id="path839"></path>
            </g>
            <g id="g847" transform="translate(-65.9996, 29)" fill-rule="nonzero">
                <path d="M467.982,486.018 C467.982,486.018 426.886,441.021 385.791,486.018 C385.791,486.018 353.499,546.019 385.791,576.016 C385.791,576.016 438.628,618.015 467.982,576.016 C467.982,576.016 503.208,543.014 467.982,486.018 L467.982,486.018 Z" id="path843" fill="#000000"></path>
                <path d="M420.404,502.71 C420.404,520.231 430.733,534.437 443.47,534.437 C456.205,534.437 466.534,520.232 466.534,502.71 C466.534,485.188 456.205,470.982 443.47,470.982 C430.732,470.982 420.404,485.188 420.404,502.71 L420.404,502.71 Z" id="path845" fill="#FFFFFF"></path>
            </g>
            <g id="g853" transform="translate(-65.9996, 29)" fill-rule="nonzero">
                <path d="M698.226,469.498 C698.226,469.498 627.732,438.286 608.491,507.952 C608.491,507.952 588.338,589.153 666.382,593.736 C666.381,593.736 765.9,574.568 698.226,469.498 Z" id="path849" fill="#000000"></path>
                <path d="M662.819,499.628 C662.819,517.696 673.469,532.351 686.609,532.351 C699.742,532.351 710.395,517.697 710.395,499.628 C710.395,481.556 699.742,466.905 686.609,466.905 C673.47,466.905 662.819,481.556 662.819,499.628 Z" id="path851" fill="#FFFFFF"></path>
            </g>
        </g>
    </g>
</svg>
